!!!COM: Haydn, Franz Joseph
!!!OTL: String Quartet in G major
!!!OPS: Opus 09
!!!ONM: No. 3
!!!OMD: Largo
!!!OMV: 3
!!!SCT: H /disk/dos2/musedata_2000/haydn/traut/quart/op09n3/stage1/03
!!!SCA: Thematisch-bibliographisches Werkevererzeichnis (A. van Hoboken)
!!!YOR: Trautwein Edition
!!!EED: Frances Bennion
!!!ENC: Frances Bennion
!!!CDT: 1732/3/31/-1809/5/31/
!!!CNT: Oesterreich
!!!YEC: Copyright (c) 1994, 2000 Center for Computer Assisted Research in the Humanities
!!!YEM: Rights to all derivative editions reserved.
!!!YEM: Refer to licensing agreement for further details.
!!!YEN: United States of America
**kern	**kern	**kern	**kern
*k[]	*k[]	*k[]	*k[]
*C:	*C:	*C:	*C:
*clefG	*clefG	*clefC3	*clefF4
*M3/4	*M3/4	*M3/4	*M3/4
*MM40	*MM40	*MM40	*MM40
=1	=1	=1	=1
8.e	8.c	[4G	4C
32f	32d	.	.
32g	32e	.	.
8f	8d	8G]	8G
4r	4r	4r	4r
16d	8G	8G	8F
32c	.	.	.
32B	.	.	.
=2	=2	=2	=2
8.c	[4G	8G	4E
.	.	8c	.
32d	.	.	.
32e	.	.	.
8d	8G]	8B	8BB
4.r	4.r	4.r	4.r
=3	=3	=3	=3
8.e	8r	4c	4C
.	4c	.	.
32f	.	.	.
32g	.	.	.
8.f	.	4d	4D
.	4B	.	.
32g	.	.	.
32a	.	.	.
8g	.	8e	4E
8cc	8c	8E	.
=4	=4	=4	=4
8a	2c	4F	4F
16g	.	.	.
16f	.	.	.
4e	.	4G	4G
8f	8d	4G	4GG
16e	16c	.	.
16d	16B	.	.
=5	=5	=5	=5
4d	4B	4.C	4.C
8e	8c	.	.
4.r	4c	8A	8F
.	.	8G	8E
.	8B	8F	8D
=6	=6	=6	=6
8.e	8.c	4E	4C
32f	32d	.	.
32g	32e	.	.
8f	8d	8G	8G
4r	4r	4r	4r
16d	8G	8G	8F
32c	.	.	.
32B	.	.	.
=7	=7	=7	=7
8.c	[4G	8G	4E
.	.	8c	.
32d	.	.	.
32e	.	.	.
8d	8G]	8B	8BB
4.r	4.r	4.r	4.r
=8	=8	=8	=8
2.ee	8g	8c	8c
.	8g	8e	8c
.	8g	8e	8c
.	8g	8e	8c
.	8g	8e	8c
.	8g	8e	8c
=9	=9	=9	=9
4.ff	8g#	8d	8B
.	8g#	8d	8B
.	8g#	8d	8B
16ee	8g#	8d	8B
16dd	.	.	.
16cc	8g#	8d	8B
16b	.	.	.
16a	8g#	8d	8B
16g#	.	.	.
=10	=10	=10	=10
8a	[3..a	[3..e	[3..c
8cc	.	.	.
8ee	.	.	.
8gg#	.	.	.
8aa	.	.	.
.	24a]	24e]	24c]
8ccc	8ee	8c	8A
=11	=11	=11	=11
8.gg	[4cc	[4A	4d
32aa	.	.	.
32gg	.	.	.
8ff#	8cc]	8A]	8D
8ff#	4.r	4.r	4.r
8gg	.	.	.
8aa	.	.	.
=12	=12	=12	=12
4aa	4.r	4.r	4.r
8cc	.	.	.
8cc	8cc	8cc	8c
8dd	8dd	8dd	8d
8ee-	8ee-	8ee-	8e-
=13	=13	=13	=13
4ee-	4ee-	4ee-	4e-
8f#	8f#	8f#	8F#
8g	8g	8g	8G
8a	8a	8a	8A
8cc	8cc	8cc	8c
=14	=14	=14	=14
4e-	4e-	4e-	4E-
8d	8d	8d	8D
8.r	4.r	4.r	4.r
32cc	.	.	.
32b	.	.	.
32dd	.	.	.
32cc	.	.	.
32ee-	.	.	.
32cc	.	.	.
=15	=15	=15	=15
4e-	4e-	4e-	4E-
8d	8d	8d	8D
4.r	4.r	4.r	4.r
=16	=16	=16	=16
[2.dd	24d	8B	8G
.	24dd	.	.
.	24b	.	.
.	24g	8r	8r
.	24d	.	.
.	24dd	.	.
.	24b	8B	8G
.	24g	.	.
.	24d	.	.
.	24dd	8r	8r
.	24b	.	.
.	24g	.	.
.	24d	8B	8G
.	24dd	.	.
.	24b	.	.
.	24g	8r	8r
.	24d	.	.
.	24dd	.	.
=17	=17	=17	=17
2.dd_	24d	8A	8F#
.	24cc	.	.
.	24a	.	.
.	24f#	8r	8r
.	24d	.	.
.	24cc	.	.
.	24a	8A	8F#
.	24f#	.	.
.	24d	.	.
.	24cc	8r	8r
.	24a	.	.
.	24f#	.	.
.	24d	8A	8F#
.	24cc	.	.
.	24a	.	.
.	24f#	8r	8r
.	24d	.	.
.	24cc	.	.
=18	=18	=18	=18
24dd]	4b	8B	8G
24ddd	.	.	.
24bb	.	.	.
24gg	.	8r	8r
24dd	.	.	.
24ddd	.	.	.
24bb	[2dd	8B	8G
24gg	.	.	.
24dd	.	.	.
24ddd	.	8r	8r
24bb	.	.	.
24gg	.	.	.
24dd	.	8B	8G
24ddd	.	.	.
24bb	.	.	.
24gg	.	8r	8r
24dd	.	.	.
24ddd	.	.	.
=19	=19	=19	=19
24dd	2.dd_	8A	8F#
24ccc	.	.	.
24aa	.	.	.
24ff#	.	8r	8r
24dd	.	.	.
24ccc	.	.	.
24aa	.	8A	8F#
24ff#	.	.	.
24dd	.	.	.
24ccc	.	8r	8r
24aa	.	.	.
24ff#	.	.	.
24dd	.	8A	8c
24ccc	.	.	.
24aa	.	.	.
24ff#	.	8r	8r
24dd	.	.	.
24ccc	.	.	.
=20	=20	=20	=20
24dd	2.dd_	8G	8B
24ddd	.	.	.
24bb	.	.	.
24gg	.	8r	8r
24dd	.	.	.
24ddd	.	.	.
24bb	.	8G	8B
24gg	.	.	.
24dd	.	.	.
24ddd	.	8r	8r
24bb	.	.	.
24gg	.	.	.
24dd	.	8g	8B
24ddd	.	.	.
24bb	.	.	.
24gg	.	8r	8r
24dd	.	.	.
24ddd	.	.	.
=21	=21	=21	=21
24ee	4dd]	2.e	4c
24ddd	.	.	.
24bb	.	.	.
24gg	.	.	.
24ee	.	.	.
24ddd	.	.	.
24ee	[2cc	.	2A
24eee	.	.	.
24ccc	.	.	.
24aa	.	.	.
24ee	.	.	.
24ccc	.	.	.
24cc	.	.	.
24ccc	.	.	.
24aa	.	.	.
24ee	.	.	.
24cc	.	.	.
24ccc	.	.	.
=22	=22	=22	=22
24dd	4cc]	2.d	4B
24ccc	.	.	.
24aa	.	.	.
24ff#	.	.	.
24dd	.	.	.
24ccc	.	.	.
24dd	[2b	.	2G
24ddd	.	.	.
24bb	.	.	.
24gg	.	.	.
24dd	.	.	.
24bb	.	.	.
24b	.	.	.
24bb	.	.	.
24gg	.	.	.
24dd	.	.	.
24b	.	.	.
24bb	.	.	.
=23	=23	=23	=23
24cc	4b]	2c	4A
24bb	.	.	.
24gg	.	.	.
24ee	.	.	.
24cc	.	.	.
24bb	.	.	.
24cc	2a	.	2F#
24ccc	.	.	.
24aa	.	.	.
24ff#	.	.	.
24cc	.	.	.
24aa	.	.	.
24a	.	4d	.
24aa	.	.	.
24ff#	.	.	.
24dd	.	.	.
24cc	.	.	.
24aa	.	.	.
=24	=24	=24	=24
24b	4g	4d	4G
24ff#	.	.	.
24gg	.	.	.
24bb	.	.	.
24dd#	.	.	.
24ee	.	.	.
24gg	2r	2r	2r
24b	.	.	.
24cc	.	.	.
24ee	.	.	.
24g#	.	.	.
24a	.	.	.
24cc	.	.	.
24e	.	.	.
24f#	.	.	.
24g	.	.	.
24c#	.	.	.
24d	.	.	.
=25	=25	=25	=25
24e	24r	24r	24r
24B	24B	24B	24BB
24c	24c	24c	24C
24e	24e	24e	24E
24B	24B	24B	24BB
24c	24c	24c	24C
24e	24e	24e	24E
24G#	24G#	24G#	24GG#
24A	24A	24A	24AA
24c	24c	24c	24C
24e	24e	24e	24E
24a	24a	24a	24A
24cc	24cc	24cc	24c
24b	24b	24b	24B
24a	24a	24a	24A
24g	24g	24g	24G
24f#	24f#	24f#	24F#
24e	24e	24e	24E
=26	=26	=26	=26
8d	[2.d	8d	24D
.	.	.	24F#
.	.	.	24A
8r	.	8r	24c
.	.	.	24A
.	.	.	24F#
8ff#	.	8cc	24D
.	.	.	24F#
.	.	.	24A
8r	.	8r	24c
.	.	.	24A
.	.	.	24F#
8gg	.	8b	24D
.	.	.	24G
.	.	.	24B
8r	.	8r	24d
.	.	.	24B
.	.	.	24G
=27	=27	=27	=27
8d	2.d]	8d	24D
.	.	.	24F#
.	.	.	24A
8r	.	8r	24c
.	.	.	24A
.	.	.	24F#
8ccc	.	8f#	24D
.	.	.	24F#
.	.	.	24A
8r	.	8r	24c
.	.	.	24A
.	.	.	24F#
8bb	.	8g	24D
.	.	.	24G
.	.	.	24B
8r	.	8r	24d
.	.	.	24B
.	.	.	24G
=28	=28	=28	=28
24e	24e	24e	24E
24g	24g	24g	24G
24b-	24b-	24b-	24B-
24cc#	24cc#	24cc#	24c#
24b-	24b-	24b-	24B-
24g	24g	24g	24G
24e	8e	8e	8E
24g	.	.	.
24b-	.	.	.
24cc#	4.r	4.r	4.r
24ee	.	.	.
24gg	.	.	.
24bb-	.	.	.
24gg	.	.	.
24ee	.	.	.
24cc#	.	.	.
24b-	.	.	.
24g	.	.	.
=29	=29	=29	=29
24d	24d	24d	24D
24f#	24f#	24f#	24F#
24a	24a	24a	24A
24cc	24cc	24cc	24c
24a	24a	24a	24A
24f#	24f#	24f#	24F#
24d	8d	8d	8D
24f#	.	.	.
24a	.	.	.
24cc	4.r	4.r	4.r
24ff#	.	.	.
24aa	.	.	.
8ccc	.	.	.
8r	.	.	.
=30	=30	=30	=30
8.b	8.g	[4d	4GG
32cc	32a	.	.
32dd	32b	.	.
8cc	8a	8d]	8D
4r	4r	4r	4r
16a	8d	8d	8c
32g	.	.	.
32f#	.	.	.
=31	=31	=31	=31
8.g	[4d	8d	4B
.	.	8g	.
32a	.	.	.
32b	.	.	.
8a	8d]	8f#	8F#
4.r	4.r	4.r	4.r
=32	=32	=32	=32
24r	24r	2r	4GG
24gg	24ee	.	.
24ff#	24dd	.	.
24gg	24ee	.	.
24ff#	24dd	.	.
24ee	24cc	.	.
24dd	24b	.	2r
24ee	24cc	.	.
24dd	24b	.	.
24ee	24cc	.	.
24dd	24b	.	.
24cc	24a	.	.
24b	4g	24r	.
24cc	.	24e	.
24b	.	24d	.
24cc	.	24e	.
24b	.	24d	.
24a	.	24c	.
=33	=33	=33	=33
4b	4g	4B	24r
.	.	.	24G
.	.	.	24F#
.	.	.	24G
.	.	.	24F#
.	.	.	24E
4gg	4b	24r	24D
.	.	24g	24E
.	.	24f#	24D
.	.	24g	24E
.	.	24f#	24D
.	.	24e	24C
4bb	4gg	24d	24BB
.	.	24c	24AA
.	.	24B	24GG
.	.	24g	24G
.	.	24e	24E
.	.	24c#	24C#
=34	=34	=34	=34
4bb	4gg	4d	4D
2aa	2r	2r	2r
=35	=35	=35	=35
2.gg	24d	8B	8G
.	24dd	.	.
.	24b	.	.
.	24g	8r	8r
.	24d	.	.
.	24dd	.	.
.	24b	8B	8G
.	24g	.	.
.	24d	.	.
.	24dd	8r	8r
.	24b	.	.
.	24g	.	.
.	24d	8B	8G
.	24dd	.	.
.	24b	.	.
.	24g	8r	8r
.	24d	.	.
.	24dd	.	.
=36	=36	=36	=36
2bb-	24d	8B-	8G
.	24dd	.	.
.	24b-	.	.
.	24g	8r	8r
.	24d	.	.
.	24dd	.	.
.	24b-	8B-	8G
.	24g	.	.
.	24d	.	.
.	24dd	8r	8r
.	24b-	.	.
.	24g	.	.
4dd	24d	8B-	8G
.	24dd	.	.
.	24b-	.	.
.	24g	8r	8r
.	24d	.	.
.	24dd	.	.
=37	=37	=37	=37
4cc#	24e	8B-	8G
.	24cc#	.	.
.	24b-	.	.
.	24g	8r	8r
.	24e	.	.
.	24cc#	.	.
4.bb-	24b-	8B-	8G
.	24g	.	.
.	24e	.	.
.	24cc#	8r	8r
.	24b-	.	.
.	24g	.	.
.	24e	8B-	8G
.	24cc#	.	.
.	24b-	.	.
8cc#	24g	8r	8r
.	24e	.	.
.	24cc#	.	.
=38	=38	=38	=38
4.dd	24d	8A	8F
.	24dd	.	.
.	24a	.	.
.	24f	8r	8r
.	24d	.	.
.	24dd	.	.
.	24a	8A	8F
.	24f	.	.
.	24d	.	.
8dd	24dd	8r	8r
.	24a	.	.
.	24f	.	.
8dd	24d	8A	8F
.	24dd	.	.
.	24a	.	.
8dd	24f	8r	8r
.	24d	.	.
.	24dd	.	.
=39	=39	=39	=39
2ee-	24a	8A	8F
.	24ee-	.	.
.	24cc	.	.
.	24a	8r	8r
.	24f	.	.
.	24c	.	.
.	24A	8A	8F
.	24c	.	.
.	24f	.	.
.	24a	8r	8r
.	24cc	.	.
.	24ee-	.	.
4dd#	24f	8A	8F
.	24a	.	.
.	24b	.	.
.	24cc	8r	8r
.	24b	.	.
.	24a	.	.
=40	=40	=40	=40
4ee	24g#	8B	8E
.	24ee	.	.
.	24b	.	.
.	24g#	8r	8r
.	24e	.	.
.	24ee	.	.
8e	8e	8e	8EE
4.r	4.r	4.r	4.r
=41	=41	=41	=41
8.e	8.c	[4G	4C
32f	32d	.	.
32g	32e	.	.
8f	8d	8G]	8G
4r	4r	4r	4r
16d	8G	8G	8F
32c	.	.	.
32B	.	.	.
=42	=42	=42	=42
8.c	[4G	8G	4E
.	.	8c	.
32d	.	.	.
32e	.	.	.
8d	8G]	8B	8BB
4.r	4.r	4.r	4.r
=43	=43	=43	=43
8.e	8r	4c	4C
.	4c	.	.
32f	.	.	.
32g	.	.	.
8.f	.	4d	4D
.	8B	.	.
32g	.	.	.
32a	.	.	.
16g	4c	8e	4E
16cc	.	.	.
16b	.	8E	.
16b-	.	.	.
=44	=44	=44	=44
16a	2c	4F	4F
16a-	.	.	.
16g	.	.	.
16f	.	.	.
4e	.	4G	4G
8f	8d	4G	4GG
16e	16c	.	.
16d	16B	.	.
=45	=45	=45	=45
4d	4B	4.C	4.C
8e	8c	.	.
4.r	4c	8A	8F
.	.	8G	8E
.	8B	8F	8D
=46	=46	=46	=46
8.e	4G	4E	4C
32f#	.	.	.
32g	.	.	.
8f#	8c	8A	8AA
8.r	4r	4r	4r
16cc	.	.	.
32b	8c	8A	8A
32a	.	.	.
32g	.	.	.
32f#	.	.	.
=47	=47	=47	=47
8.f#	[4d	[4B	[4B
32g	.	.	.
32a	.	.	.
8g	8d]	8B]	8B]
8dd	4.r	4.r	4.r
8ee	.	.	.
8ff	.	.	.
=48	=48	=48	=48
4ff	4.r	4.r	4.r
8b	.	.	.
8b	8b	8b	8B
8cc	8cc	8cc	8c
8dd	8dd	8dd	8d
=49	=49	=49	=49
4dd	4dd	4dd	4d
8f	8f	8f	8F
8f	8f	8f	8F
8g	8g	8g	8G
8a-	8a-	8a-	8A-
=50	=50	=50	=50
4a-	4a-	4a-	4A-
8B	8B	8B	8BB
8c	8c	8c	8C
8d	8d	8d	8D
8f	8f	8f	8F
=51	=51	=51	=51
4A-	4A-	4A-	4AA-
8G	8G	8G	8GG
8.r	4.r	4.r	4.r
32e	.	.	.
32f	.	.	.
32g	.	.	.
32f	.	.	.
32a-	.	.	.
32f	.	.	.
=52	=52	=52	=52
4A-	4A-	4A-	4AA-
8G	8G	8G	8GG
4.r	4.r	4.r	4.r
=53	=53	=53	=53
24g	[2.g	8e	8C
24gg	.	.	.
24ee	.	.	.
24cc	.	8r	8r
24g	.	.	.
24gg	.	.	.
24ee	.	8e	8C
24cc	.	.	.
24g	.	.	.
24gg	.	8r	8r
24ee	.	.	.
24cc	.	.	.
24g	.	8e	8C
24gg	.	.	.
24ee	.	.	.
24cc	.	8r	8r
24g	.	.	.
24gg	.	.	.
=54	=54	=54	=54
24g	2.g_	8d	8BB
24ff	.	.	.
24dd	.	.	.
24b	.	8r	8r
24g	.	.	.
24ff	.	.	.
24dd	.	8d	8BB
24b	.	.	.
24g	.	.	.
24ff	.	8r	8r
24dd	.	.	.
24b	.	.	.
24g	.	8d	8F
24ff	.	.	.
24dd	.	.	.
24b	.	8r	8r
24g	.	.	.
24ff	.	.	.
=55	=55	=55	=55
24g	2.g_	8c	8E
24gg	.	.	.
24ee	.	.	.
24cc	.	8r	8r
24g	.	.	.
24gg	.	.	.
24ee	.	8c	8E
24cc	.	.	.
24g	.	.	.
24gg	.	8r	8r
24ee	.	.	.
24cc	.	.	.
24g	.	8c	8E
24gg	.	.	.
24ee	.	.	.
24cc	.	8r	8r
24g	.	.	.
24gg	.	.	.
=56	=56	=56	=56
24a	4g]	2.a	4F
24gg	.	.	.
24ee	.	.	.
24cc	.	.	.
24a	.	.	.
24gg	.	.	.
24a	[2f	.	2D
24aa	.	.	.
24ff	.	.	.
24dd	.	.	.
24a	.	.	.
24ff	.	.	.
24f	.	.	.
24ff	.	.	.
24dd	.	.	.
24a	.	.	.
24f	.	.	.
24ff	.	.	.
=57	=57	=57	=57
24g	4f]	2.g	4E
24ff	.	.	.
24dd	.	.	.
24b	.	.	.
24g	.	.	.
24ff	.	.	.
24g	[2e	.	2C
24gg	.	.	.
24ee	.	.	.
24cc	.	.	.
24g	.	.	.
24ee	.	.	.
24e	.	.	.
24ee	.	.	.
24cc	.	.	.
24g	.	.	.
24e	.	.	.
24ee	.	.	.
=58	=58	=58	=58
24f	4e]	2f	4D
24ee	.	.	.
24cc	.	.	.
24a	.	.	.
24f	.	.	.
24ee	.	.	.
24f	2d	.	2BB
24ff	.	.	.
24dd	.	.	.
24b	.	.	.
24f	.	.	.
24dd	.	.	.
24d	.	4g	.
24dd	.	.	.
24b	.	.	.
24g	.	.	.
24f	.	.	.
24dd	.	.	.
=59	=59	=59	=59
24e	4c	4g	4C
24b	.	.	.
24cc	.	.	.
24ee	.	.	.
24b	.	.	.
24cc	.	.	.
24ee	2r	2r	2r
24g#	.	.	.
24a	.	.	.
24cc	.	.	.
24g#	.	.	.
24a	.	.	.
24cc	.	.	.
24e	.	.	.
24f	.	.	.
24a	.	.	.
24e	.	.	.
24f	.	.	.
=60	=60	=60	=60
24a	24r	24r	24r
24c#	24c#	24c#	24C#
24d	24d	24d	24D
24f	24f	24f	24F
24c#	24c#	24c#	24C#
24d	24d	24d	24D
24f	24f	24f	24F
24c#	24c#	24c#	24C#
24d	24d	24d	24D
24f	24f	24f	24F
24c#	24c#	24c#	24C#
24d	24d	24d	24D
24f	24f	24f	24F
24e	24e	24e	24E
24d	24d	24d	24D
24c	24c	24c	24C
24B	24B	24B	24BB
24A	24A	24A	24AA
=61	=61	=61	=61
8G	8G	[2.G	24GG
.	.	.	24BB
.	.	.	24D
8r	8r	.	24F
.	.	.	24D
.	.	.	24BB
8b	8f	.	24GG
.	.	.	24BB
.	.	.	24D
8r	8r	.	24F
.	.	.	24D
.	.	.	24BB
8cc	8e	.	24GG
.	.	.	24C
.	.	.	24E
8r	8r	.	24G
.	.	.	24E
.	.	.	24C
=62	=62	=62	=62
8G	8G	2.G]	24GG
.	.	.	24BB
.	.	.	24D
8r	8r	.	24F
.	.	.	24D
.	.	.	24BB
8ff	8b	.	24GG
.	.	.	24BB
.	.	.	24D
8r	8r	.	24F
.	.	.	24D
.	.	.	24BB
8ee	8cc	.	24GG
.	.	.	24C
.	.	.	24E
8r	8r	.	24G
.	.	.	24E
.	.	.	24C
=63	=63	=63	=63
24A	24A	24A	24AA
24c	24c	24c	24C
24e-	24e-	24e-	24E-
24f#	24f#	24f#	24F#
24e-	24e-	24e-	24E-
24c	24c	24c	24C
24A	8A	8A	8AA
24c	.	.	.
24e-	.	.	.
24f#	4.r	4.r	4.r
24a	.	.	.
24cc	.	.	.
24ee-	.	.	.
24cc	.	.	.
24a	.	.	.
24f#	.	.	.
24e-	.	.	.
24c	.	.	.
=64	=64	=64	=64
24G	24G	24G	24GG
24B	24B	24B	24BB
24d	24d	24d	24D
24f	24f	24f	24F
24d	24d	24d	24D
24B	24B	24B	24BB
24G	8G	8G	8GG
24B	.	.	.
24d	.	.	.
24f	4.r	4.r	4.r
24b	.	.	.
24dd	.	.	.
8ff	.	.	.
8r	.	.	.
=65	=65	=65	=65
8.e	8.c	[4G	4C
32f	32d	.	.
32g	32e	.	.
8f	8d	8G]	8G
4r	4r	4r	4r
16d	8G	8G	8F
32c	.	.	.
32B	.	.	.
=66	=66	=66	=66
8.c	[4G	8G	4E
.	.	8c	.
32d	.	.	.
32e	.	.	.
8d	8G]	8B	8BB
4.r	4.r	4.r	4.r
=67	=67	=67	=67
24r	24r	2r	4CC
24ccc	24aa	.	.
24bb	24gg	.	.
24ccc	24aa	.	.
24bb	24gg	.	.
24aa	24ff	.	.
24gg	24ee	.	2r
24aa	24ff	.	.
24gg	24ee	.	.
24aa	24ff	.	.
24gg	24ee	.	.
24ff	24dd	.	.
24ee	4cc	24r	.
24ff	.	24a	.
24ee	.	24g	.
24ff	.	24a	.
24ee	.	24g	.
24dd	.	24f	.
=68	=68	=68	=68
4cc	2cc	4e	24r
.	.	.	24c
.	.	.	24B
.	.	.	24c
.	.	.	24B
.	.	.	24A
4ee	.	24r	24G
.	.	24cc	24A
.	.	24b	24G
.	.	24cc	24A
.	.	24b	24G
.	.	24a	24F
4ccc	4ee	24g	24E
.	.	24c	24C
.	.	24B	24BB
.	.	24A	24AA
.	.	24G	24GG
.	.	24F#	24FF#
=69	=69	=69	=69
4ccc	4ee	4G	4GG
2dd	2r	2r	2r
=70	=70	=70	=70
2cc	24c	8e	8C
.	24cc	.	.
.	24g	.	.
.	24e	8r	8r
.	24c	.	.
.	24cc	.	.
.	24g	8e	8C
.	24e	.	.
.	24c	.	.
.	24cc	8r	8r
.	24g	.	.
.	24e	.	.
4b-	24c	8e	8C
.	24cc	.	.
.	24g	.	.
.	24e	8r	8r
.	24c	.	.
.	24cc	.	.
=71	=71	=71	=71
2a	24c	8f	8C
.	24cc	.	.
.	24a	.	.
.	24f	8r	8r
.	24c	.	.
.	24cc	.	.
.	24a	8f	8C
.	24f	.	.
.	24c	.	.
.	24cc	8r	8r
.	24a	.	.
.	24f	.	.
4B	24c	8f	8C
.	24a	.	.
.	24g	.	.
.	24f	8r	8r
.	24e	.	.
.	24d	.	.
=72	=72	=72	=72
4c	4e	4e	24CC
.	.	.	24C
.	.	.	24GG
.	.	.	24EE
.	.	.	24CC
.	.	.	24C
8.c	8.e	2G	24GG
.	.	.	24EE
.	.	.	24CC
.	.	.	24C
.	.	.	24GG
16d	16f	.	.
.	.	.	24EE
8.c	8.e	.	24CC
.	.	.	24C
.	.	.	24GG
.	.	.	24EE
.	.	.	24CC
16d	16f	.	.
.	.	.	24C
=73	=73	=73	=73
2.c	2.e	2.G	2.CC
==	==	==	==
*-	*-	*-	*-
!!!RWG1: This file contains only pitch and duration data.
!!!RWG2: Transposing instruments are not transposed.
!!!RWG3: Spines may have incompatible meters.
!!!RWG4: Durations of rests and tied notes may be interpreted.
!!!RWG: Key is interpreted using the Humdrum key tool.
!!!AFT: stage1
!!!END: 1997/04/15
!!format changes:
!!content changes:
!!public access: complete
!!!KEY: 3534985703
!!!EMD: Converted from MuseData to Humdrum Dec 16, 2000, by Andreas Kornstaedt using muse2kern.
